img/linkedin.svg

<svg height="96" viewBox="0 0 24 24" width="96" xmlns="http://www.w3.org/2000/svg"><path d="m19 3h-14c-1.105 0-2 .895-2 2v14c0 1.105.895 2 2 2h14c1.105 0 2-.895 2-2v-14c0-1.105-.895-2-2-2zm-10 14h-2.523v-7h2.523zm-1.306-8.283c-.771 0-1.286-.514-1.286-1.2s.514-1.2 1.371-1.2c.771 0 1.286.514 1.286 1.2s-.514 1.2-1.371 1.2zm10.306 8.283h-2.442v-3.826c0-1.058-.651-1.302-.895-1.302s-1.058.163-1.058 1.302v3.826h-2.523v-7h2.523v.977c.325-.57.976-.977 2.197-.977s2.198.977 2.198 3.174z"/></svg>

<?xml version="1.0" encoding="iso-8859-1"?><!-- Generator: Adobe Illustrator 22.1.0, SVG Export Plug-In . SVG Version: 6.00 Build 0)  --><svg xmlns="http://www.w3.org/2000/svg" xmlns:xlink="http://www.w3.org/1999/xlink" viewBox="0 0 24 24" width="96px" height="96px"><g id="Filled"><path d="M19,3H5C3.895,3,3,3.895,3,5v14c0,1.105,0.895,2,2,2h14c1.105,0,2-0.895,2-2V5C21,3.895,20.105,3,19,3z M9,17H6.477v-7H9V17z M7.694,8.717c-0.771,0-1.286-0.514-1.286-1.2s0.514-1.2,1.371-1.2c0.771,0,1.286,0.514,1.286,1.2S8.551,8.717,7.694,8.717z M18,17h-2.442v-3.826c0-1.058-0.651-1.302-0.895-1.302s-1.058,0.163-1.058,1.302c0,0.163,0,3.826,0,3.826h-2.523v-7h2.523v0.977C13.93,10.407,14.581,10,15.802,10C17.023,10,18,10.977,18,13.174V17z"/></g></svg>
